X: 1
T: Masbopolkett No.1
O: Tierp
S: Bengt Jonsson
M: 2/4
L: 1/16
K: C
|: G2c2 e2c2 | ~c2Bc d2G2 |1,3 B2d2 f2B2 | dcBc e2c2 :|2,4 B2d2 f3B/B/ | d2c2 c4 :|
|: f2f2 a3f | ~f2e2 g3e |1,3 e2d2 fdB2 | d2c2 eceg :|2,4 e2d2 fdBd | c2e2 c4 :|
